X:7442
T: The Waters of Holland
O: England
M: 4/4
L: 1/8
Q: 1/4=240
K: Am
E2        |: A2 B2 c2 d2| e4 e2 g2|^f2 e2 e2 ^d2|[1 e6 E2 :|\
[2 e6 e2  |:c4 c2 e2    |d4 d3 B  | c2 B2 A2 c2 | d4 B4   |\
AGAB c2 B2| ABcd e3 e   |d2c2B2A2 |[1B4 A2 e2   :|[2 B4 A4|


